!!!COM: Gioseffo Zarlino
!!!OPR: Le istitutioni harmoniche
!!!OTL: Fourth way: canon at the fifth above after a minim, CF in lowest voice.
!!!PPR: Francesco Senese
!!!PDT: 1573
!!!PPP: Venice
!!!ONB: Reprint ed., New York: Broude Bros., 1965.  ch. 63, p. 308.
!!!ONB: Transcribed from Gioseffo Zarlino, Le Istitutioni Harmoniche, 1573,
**kern	**kern	**kern
*k[]	*k[]	*k[]
*M4/4	*M4/4	*M4/4
*CF	*guida	*conseq
=1	=1	=1
1G	1g	2r
.	.	[2dd
=2	=2	=2
1A	2f	2dd]
.	2e	2cc
=3	=3	=3
{1G	2.g	2b
.	.	[2dd
.	4d	.
=4	=4	=4
1F}	1f	4dd]
.	.	4a
.	.	[2cc
=5	=5	=5
1G	2e	2cc]
.	2d	2b
=6	=6	=6
{1A	2f	2a
.	2e	2cc
=7	=7	=7
1G}	4g	2b
.	4G	.
.	2B-	4dd
.	.	4d
=8	=8	=8
1c	2A	2f
.	2c	2e
=9	=9	=9
1d	2G	2g
.	2B	2d
=10	=10	=10
1c	2A	2f
.	2A	2e
=11	=11	=11
1c	4.A	2e
.	8B	.
.	4.c	4.e
.	8d	8f
=12	=12	=12
1G	8e	4.g
.	8f	.
.	2g	.
.	.	8a
.	.	8b
.	.	8cc
.	4g	[4dd
=13	=13	=13
1A	2f	4dd]
.	.	4dd
.	[2a	2cc
=14	=14	=14
1c	2a]	1ee
.	2g	.
=15	=15	=15
{1d	2b	2dd
.	[2a	2ff
=16	=16	=16
1c}	2a]	1ee
.	[2g	.
=17	=17	=17
1d	2g]	1dd
.	2f	.
=18	=18	=18
1e	2e	2cc
.	2g	2b
=19	=19	=19
1d	4r	2dd
.	4e	.
.	4.f	4r
.	.	4b
.	8g	.
=20	=20	=20
1c	2a	4.cc
.	.	8dd
.	[2g	2ee
=21	=21	=21
{1d	4g]	2.dd
.	8f	.
.	8e	.
.	4f	.
.	8e	8cc
.	8d	8b
=22	=22	=22
1e}	2c	4cc
.	.	8b
.	.	8a
.	[2c	2g
=23	=23	=23
{1c	4c]	2.g
.	4d	.
.	4e	.
.	4f	4a
=24	=24	=24
1B}	2.g	4b
.	.	4cc
.	.	[2dd
.	8f	.
.	8e	.
=25	=25	=25
{1A	2f	4dd]
.	.	8cc
.	.	8b
.	4.e	2cc
.	8f	.
=26	=26	=26
1G}	4g	4.b
.	4G	.
.	.	8cc
.	2B-	4dd
.	.	4d
=27	=27	=27
{1c	2A	2f
.	2c	2e
=28	=28	=28
1d}	1G	2g
.	.	[2d
=29	=29	=29
1G	2G	2d]
.	[2d	2d
=30	=30	=30
1A	2d]	1a
.	[2c	.
=31	=31	=31
1c	4c]	2.g
.	4d	.
.	4e	.
.	4f	4a
=32	=32	=32
{1B	4.g	4b
.	.	4cc
.	8G	.
.	2B	4.dd
.	.	8d
=33	=33	=33
1c}	1A	2f
.	.	[2e
=34	=34	=34
{1A	2A	2e]
.	[2e	2e
=35	=35	=35
1G}	2e]	1b
.	[2d	.
=36	=36	=36
1F	4d]	2.a
.	4e	.
.	[2f	.
.	.	4b
=37	=37	=37
{1A	4f]	2.cc
.	8e	.
.	8d	.
.	2c	.
.	.	8b
.	.	8a
=38	=38	=38
1B-}	1g	2g
.	.	[2dd
=39	=39	=39
1A	1f	2dd]
.	.	[2cc
=40	=40	=40
{1G	2e	2cc]
.	2d	2b
=41	=41	=41
1F}	2.f	2a
.	.	[2cc
.	8e	.
.	8d	.
=42	=42	=42
1G	4e	4cc]
.	4f	8b
.	.	8a
.	4g	4b
.	4a	4cc
=43	=43	=43
1G	1b	1dd
==	==	==
*-	*-	*-
!!!CDT: 1517/3/22-1590/2/14
!!!CNT: Italia
!!!ODT: <1573//
!!!YEP: David Huron and Denis Collins
!!!YEN: Canada
!!!AIN: vox; ?
!!!AST: polyphony
!!!RDT: 1995 July 3
!!!YED: 1995 August 31
!!!AFR: cantus firmus canon
!!!AMT: simple quadruple
!!!EEV: 1.0
